X: 12594
T: Farewell To The Doherty's
R: waltz
M: 3/4
K: Aminor
|"Am"A3 Bcd|e3 g e2|"G" de c2 dc|BA G2 GB|
"Am"c3 ABc|"G"de cAAG|"Am"A4 AB|"Em" B4 E2|
"Am"A3 Bcd|ef g3 e|"G" de c2 dc|BA G2 (3GAB|
"Am"c3 ABc|"G"de cAAG|"Am"EA A2 AB|"Am"A4 eg
|:"Am"a2 g3 f|edcdeg|"G"d3 cBc|BAG2 AB|
"Am"c3ABc|"G"de cAAG|"Am"A4 AB|1 "Em"B4 eg:|2 "Am"A6||

